components/AppDevelopmentCommon/Svg/svgs/titledKeras.svg

<svg width="88" height="143" viewBox="0 0 88 143" fill="none" xmlns="http://www.w3.org/2000/svg">
<path d="M27.19 133L22.024 127.276V133H20.386V120.454H22.024V126.268L27.208 120.454H29.278L23.59 126.736L29.332 133H27.19ZM40.1614 127.69C40.1614 128.002 40.1434 128.332 40.1074 128.68H32.2234C32.2834 129.652 32.6134 130.414 33.2134 130.966C33.8254 131.506 34.5634 131.776 35.4274 131.776C36.1354 131.776 36.7234 131.614 37.1914 131.29C37.6714 130.954 38.0074 130.51 38.1994 129.958H39.9634C39.6994 130.906 39.1714 131.68 38.3794 132.28C37.5874 132.868 36.6034 133.162 35.4274 133.162C34.4914 133.162 33.6514 132.952 32.9074 132.532C32.1754 132.112 31.5994 131.518 31.1794 130.75C30.7594 129.97 30.5494 129.07 30.5494 128.05C30.5494 127.03 30.7534 126.136 31.1614 125.368C31.5694 124.6 32.1394 124.012 32.8714 123.604C33.6154 123.184 34.4674 122.974 35.4274 122.974C36.3634 122.974 37.1914 123.178 37.9114 123.586C38.6314 123.994 39.1834 124.558 39.5674 125.278C39.9634 125.986 40.1614 126.79 40.1614 127.69ZM38.4694 127.348C38.4694 126.724 38.3314 126.19 38.0554 125.746C37.7794 125.29 37.4014 124.948 36.9214 124.72C36.4534 124.48 35.9314 124.36 35.3554 124.36C34.5274 124.36 33.8194 124.624 33.2314 125.152C32.6554 125.68 32.3254 126.412 32.2414 127.348H38.4694ZM43.9615 124.738C44.2495 124.174 44.6575 123.736 45.1855 123.424C45.7255 123.112 46.3795 122.956 47.1475 122.956V124.648H46.7155C44.8795 124.648 43.9615 125.644 43.9615 127.636V133H42.3235V123.136H43.9615V124.738ZM48.4263 128.032C48.4263 127.024 48.6303 126.142 49.0383 125.386C49.4463 124.618 50.0043 124.024 50.7123 123.604C51.4323 123.184 52.2303 122.974 53.1063 122.974C53.9703 122.974 54.7203 123.16 55.3563 123.532C55.9923 123.904 56.4663 124.372 56.7783 124.936V123.136H58.4343V133H56.7783V131.164C56.4543 131.74 55.9683 132.22 55.3203 132.604C54.6843 132.976 53.9403 133.162 53.0883 133.162C52.2123 133.162 51.4203 132.946 50.7123 132.514C50.0043 132.082 49.4463 131.476 49.0383 130.696C48.6303 129.916 48.4263 129.028 48.4263 128.032ZM56.7783 128.05C56.7783 127.306 56.6283 126.658 56.3283 126.106C56.0283 125.554 55.6203 125.134 55.1043 124.846C54.6003 124.546 54.0423 124.396 53.4303 124.396C52.8183 124.396 52.2603 124.54 51.7563 124.828C51.2523 125.116 50.8503 125.536 50.5503 126.088C50.2503 126.64 50.1003 127.288 50.1003 128.032C50.1003 128.788 50.2503 129.448 50.5503 130.012C50.8503 130.564 51.2523 130.99 51.7563 131.29C52.2603 131.578 52.8183 131.722 53.4303 131.722C54.0423 131.722 54.6003 131.578 55.1043 131.29C55.6203 130.99 56.0283 130.564 56.3283 130.012C56.6283 129.448 56.7783 128.794 56.7783 128.05ZM64.6944 133.162C63.9384 133.162 63.2604 133.036 62.6604 132.784C62.0604 132.52 61.5864 132.16 61.2384 131.704C60.8904 131.236 60.6984 130.702 60.6624 130.102H62.3544C62.4024 130.594 62.6304 130.996 63.0384 131.308C63.4584 131.62 64.0044 131.776 64.6764 131.776C65.3004 131.776 65.7924 131.638 66.1524 131.362C66.5124 131.086 66.6924 130.738 66.6924 130.318C66.6924 129.886 66.5004 129.568 66.1164 129.364C65.7324 129.148 65.1384 128.938 64.3344 128.734C63.6024 128.542 63.0024 128.35 62.5344 128.158C62.0784 127.954 61.6824 127.66 61.3464 127.276C61.0224 126.88 60.8604 126.364 60.8604 125.728C60.8604 125.224 61.0104 124.762 61.3104 124.342C61.6104 123.922 62.0364 123.592 62.5884 123.352C63.1404 123.1 63.7704 122.974 64.4784 122.974C65.5704 122.974 66.4524 123.25 67.1244 123.802C67.7964 124.354 68.1564 125.11 68.2044 126.07H66.5664C66.5304 125.554 66.3204 125.14 65.9364 124.828C65.5644 124.516 65.0604 124.36 64.4244 124.36C63.8364 124.36 63.3684 124.486 63.0204 124.738C62.6724 124.99 62.4984 125.32 62.4984 125.728C62.4984 126.052 62.6004 126.322 62.8044 126.538C63.0204 126.742 63.2844 126.91 63.5964 127.042C63.9204 127.162 64.3644 127.3 64.9284 127.456C65.6364 127.648 66.2124 127.84 66.6564 128.032C67.1004 128.212 67.4784 128.488 67.7904 128.86C68.1144 129.232 68.2824 129.718 68.2944 130.318C68.2944 130.858 68.1444 131.344 67.8444 131.776C67.5444 132.208 67.1184 132.55 66.5664 132.802C66.0264 133.042 65.4024 133.162 64.6944 133.162Z" fill="#A0A0A0"/>
<g clip-path="url(#clip0_5292_16328)">
<path d="M88 87.9967C88 87.9984 87.9984 88 87.9967 88H0.00325926C0.00162963 88 0 87.9984 0 87.9967V0.00325926C0 0.00162963 0.00162963 0 0.00325926 0H87.9976C87.9992 0 88.0008 0.00162963 88.0008 0.00325926V87.9967H88Z" fill="white"/>
<path d="M86.5315 86.5301C86.5315 86.5317 86.5299 86.5333 86.5282 86.5333H1.4681C1.46647 86.5333 1.46484 86.5317 1.46484 86.5301V1.46993C1.46484 1.4683 1.46647 1.46667 1.4681 1.46667H86.5291C86.5307 1.46667 86.5323 1.4683 86.5323 1.46993V86.5301H86.5315Z" fill="#A3A3A3"/>
<path d="M24.6883 67.1138C24.6883 67.1782 24.7258 67.2678 24.7706 67.3126L26.2267 68.7687C26.2723 68.8143 26.3619 68.851 26.4255 68.851H31.4081C31.4725 68.851 31.5621 68.8135 31.6069 68.7687L33.063 67.3126C33.1086 67.267 33.1453 67.1774 33.1453 67.1138V51.304C33.1453 51.2396 33.1836 51.1508 33.23 51.1068L39.5603 45.0609C39.6068 45.0169 39.6744 45.0234 39.7102 45.0772L55.7042 68.7557C55.7401 68.8086 55.8224 68.8526 55.886 68.8526H62.9447C63.0091 68.8526 63.0857 68.8062 63.115 68.7492L64.3959 66.2672C64.4252 66.2102 64.4195 66.1206 64.3828 66.0676L45.6747 38.9506C45.638 38.8976 45.6454 38.8178 45.691 38.7721L62.8982 21.6455C62.9439 21.5999 62.9805 21.5111 62.9805 21.4467V21.1306C62.9805 21.0662 62.9594 20.966 62.9341 20.9065L61.9417 18.6242C61.9164 18.5655 61.8422 18.5175 61.7787 18.5175H54.8014C54.7371 18.5175 54.6474 18.5549 54.6026 18.5998L33.2292 40.0538C33.1836 40.0995 33.1469 40.084 33.1469 40.0196V20.3378C33.1469 20.2734 33.1111 20.1829 33.0671 20.1357L31.6387 18.6038C31.5947 18.5566 31.5067 18.5183 31.4423 18.5183H26.4255C26.3611 18.5183 26.2731 18.5566 26.2291 18.6038L24.7665 20.1829C24.7225 20.2302 24.6875 20.3206 24.6875 20.385V67.1138H24.6883Z" fill="white"/>
</g>
<defs>
<clipPath id="clip0_5292_16328">
<rect width="88" height="88" fill="white"/>
</clipPath>
</defs>
</svg>

<svg xmlns="http://www.w3.org/2000/svg" width="88" height="143" fill="none">
  <path fill="#A0A0A0" d="m27.19 133-5.166-5.724V133h-1.638v-12.546h1.638v5.814l5.184-5.814h2.07l-5.688 6.282L29.332 133H27.19Zm12.971-5.31c0 .312-.018.642-.054.99h-7.884c.06.972.39 1.734.99 2.286.612.54 1.35.81 2.214.81.708 0 1.296-.162 1.764-.486.48-.336.816-.78 1.008-1.332h1.764a4.284 4.284 0 0 1-1.584 2.322c-.792.588-1.776.882-2.952.882-.936 0-1.776-.21-2.52-.63a4.492 4.492 0 0 1-1.728-1.782c-.42-.78-.63-1.68-.63-2.7 0-1.02.204-1.914.612-2.682a4.254 4.254 0 0 1 1.71-1.764c.744-.42 1.596-.63 2.556-.63.936 0 1.764.204 2.484.612.72.408 1.272.972 1.656 1.692.396.708.594 1.512.594 2.412Zm-1.692-.342c0-.624-.138-1.158-.414-1.602a2.605 2.605 0 0 0-1.134-1.026c-.468-.24-.99-.36-1.566-.36-.828 0-1.536.264-2.124.792-.576.528-.906 1.26-.99 2.196h6.228Zm5.492-2.61a3.16 3.16 0 0 1 1.224-1.314c.54-.312 1.194-.468 1.962-.468v1.692h-.431c-1.837 0-2.755.996-2.755 2.988V133h-1.637v-9.864h1.638v1.602Zm4.465 3.294c0-1.008.204-1.89.612-2.646a4.446 4.446 0 0 1 1.674-1.782c.72-.42 1.518-.63 2.394-.63.864 0 1.614.186 2.25.558.636.372 1.11.84 1.422 1.404v-1.8h1.656V133h-1.656v-1.836c-.324.576-.81 1.056-1.458 1.44-.636.372-1.38.558-2.232.558-.876 0-1.668-.216-2.376-.648-.708-.432-1.266-1.038-1.674-1.818-.408-.78-.612-1.668-.612-2.664Zm8.352.018c0-.744-.15-1.392-.45-1.944a3.098 3.098 0 0 0-1.224-1.26 3.211 3.211 0 0 0-1.674-.45c-.612 0-1.17.144-1.674.432a3.134 3.134 0 0 0-1.206 1.26c-.3.552-.45 1.2-.45 1.944 0 .756.15 1.416.45 1.98.3.552.702.978 1.206 1.278a3.314 3.314 0 0 0 1.674.432c.612 0 1.17-.144 1.674-.432.516-.3.924-.726 1.224-1.278.3-.564.45-1.218.45-1.962Zm7.916 5.112c-.756 0-1.434-.126-2.034-.378-.6-.264-1.074-.624-1.422-1.08a2.92 2.92 0 0 1-.576-1.602h1.692c.048.492.276.894.684 1.206.42.312.966.468 1.638.468.624 0 1.116-.138 1.476-.414.36-.276.54-.624.54-1.044 0-.432-.192-.75-.576-.954-.384-.216-.978-.426-1.782-.63a14.665 14.665 0 0 1-1.8-.576 3.418 3.418 0 0 1-1.188-.882c-.324-.396-.486-.912-.486-1.548 0-.504.15-.966.45-1.386.3-.42.726-.75 1.278-.99.552-.252 1.182-.378 1.89-.378 1.092 0 1.974.276 2.646.828.672.552 1.032 1.308 1.08 2.268h-1.638c-.036-.516-.246-.93-.63-1.242-.372-.312-.876-.468-1.512-.468-.588 0-1.056.126-1.404.378-.348.252-.522.582-.522.99 0 .324.102.594.306.81.216.204.48.372.792.504.324.12.768.258 1.332.414.708.192 1.284.384 1.728.576.444.18.822.456 1.134.828.324.372.492.858.504 1.458 0 .54-.15 1.026-.45 1.458-.3.432-.726.774-1.278 1.026-.54.24-1.164.36-1.872.36Z" />
  <g clip-path="url(#a)">
    <path fill="#fff" d="M88 87.997a.003.003 0 0 1-.003.003H.003A.003.003 0 0 1 0 87.997V.003L.003 0h87.995L88 .003v87.994H88Z" />
    <path fill="#A3A3A3" d="M86.531 86.53c0 .002-.001.003-.003.003H1.468c-.002 0-.003-.001-.003-.003V1.47c0-.002.001-.003.003-.003H86.53c.002 0 .003.001.003.003v85.06Z" />
    <path fill="#fff" d="M24.688 67.114c0 .064.038.154.083.199l1.456 1.456a.324.324 0 0 0 .198.082h4.983a.325.325 0 0 0 .199-.082l1.456-1.456a.324.324 0 0 0 .082-.2V51.305c0-.064.039-.153.085-.197l6.33-6.046a.095.095 0 0 1 .15.016l15.994 23.679a.248.248 0 0 0 .182.097h7.059a.21.21 0 0 0 .17-.104l1.28-2.482a.214.214 0 0 0-.012-.2L45.675 38.952a.145.145 0 0 1 .016-.179l17.207-17.127a.322.322 0 0 0 .082-.198v-.316a.682.682 0 0 0-.046-.224l-.992-2.283a.194.194 0 0 0-.163-.107H54.8a.324.324 0 0 0-.198.083L33.229 40.054c-.045.045-.082.03-.082-.034V20.338a.342.342 0 0 0-.08-.202l-1.428-1.532a.307.307 0 0 0-.197-.086h-5.017a.307.307 0 0 0-.196.086l-1.462 1.579a.341.341 0 0 0-.08.202v46.729h.001Z" />
  </g>
  <defs>
    <clipPath id="a">
      <path fill="#fff" d="M0 0h88v88H0z" />
    </clipPath>
  </defs>
</svg>
